images_sukapura_svg/cmd/lc_undo.svg

<svg viewBox="0 0 24 24" xmlns="http://www.w3.org/2000/svg" xmlns:xlink="http://www.w3.org/1999/xlink"><linearGradient id="a" gradientTransform="translate(75 -7)" gradientUnits="userSpaceOnUse" x1="14" x2="13.79661" y1="22" y2="2.135593"><stop offset="0" stop-color="#0040dd"/><stop offset="1" stop-color="#0a84ff"/></linearGradient><linearGradient id="b" gradientUnits="userSpaceOnUse" x1="11" x2="11" xlink:href="#a" y1="19" y2="6"/><linearGradient id="c" gradientTransform="translate(1 -1)" gradientUnits="userSpaceOnUse" x1="10" x2="10" xlink:href="#a" y1="20" y2="7"/><path d="m3.8527923 7.661775a.50108156.50108156 0 0 0 -.8548812.354935v8.485281a.50108156.50108156 0 0 0 .4999465.499947h8.4852814a.50108156.50108156 0 0 0 .354935-.854882l-3.5355342-3.535533-1.4142136-1.414214z" fill="url(#b)"/><path d="m14.5 6a6.5 6.5 0 0 0 -4.6875 2l-5.3144531 5.380859 1.7675781 1.767579 5.941406-5.941407.292969-.21289a3.9627378 3.9627378 0 0 1 2.25-.707032 3.9627378 3.9627378 0 0 1 3.962891 3.962891 3.9627378 3.9627378 0 0 1 -1.03711 2.666016 4.0002499 4.0002499 0 0 1 -.390625.447265 1.25 1.25 0 0 0 -.613281 1.074219 1.25 1.25 0 0 0 1.25 1.25 1.25 1.25 0 0 0 .796875-.289062l.01953.02539a6.5 6.5 0 0 0 2.26172-4.923828 6.5 6.5 0 0 0 -6.5-6.5z" fill="url(#c)" stroke-width="1.189197"/></svg>

<?xml version="1.0" encoding="UTF-8" standalone="no"?>
<svg
   xmlns:dc="http://purl.org/dc/elements/1.1/"
   xmlns:cc="http://creativecommons.org/ns#"
   xmlns:rdf="http://www.w3.org/1999/02/22-rdf-syntax-ns#"
   xmlns:svg="http://www.w3.org/2000/svg"
   xmlns="http://www.w3.org/2000/svg"
   xmlns:xlink="http://www.w3.org/1999/xlink"
   xmlns:sodipodi="http://sodipodi.sourceforge.net/DTD/sodipodi-0.dtd"
   xmlns:inkscape="http://www.inkscape.org/namespaces/inkscape"
   viewBox="0 0 24 24"
   version="1.1"
   id="svg13"
   sodipodi:docname="lc_undo.svg"
   inkscape:version="0.92.3 (unknown)"
   inkscape:export-filename="/home/rizmut/Dokumen/Rizmut/Github/libreoffice-style-sukapura/images_sukapura/cmd/lc_undo.png"
   inkscape:export-xdpi="96"
   inkscape:export-ydpi="96">
  <metadata
     id="metadata19">
    <rdf:RDF>
      <cc:Work
         rdf:about="">
        <dc:format>image/svg+xml</dc:format>
        <dc:type
           rdf:resource="http://purl.org/dc/dcmitype/StillImage" />
        <dc:title></dc:title>
      </cc:Work>
    </rdf:RDF>
  </metadata>
  <defs
     id="defs17">
    <linearGradient
       gradientTransform="translate(75,-7)"
       id="a-367"
       gradientUnits="userSpaceOnUse"
       x1="14"
       x2="13.79661"
       y1="22"
       y2="2.1355929">
      <stop
         offset="0"
         stop-color="#0040dd"
         id="stop2206" />
      <stop
         offset="1"
         stop-color="#0a84ff"
         id="stop2208" />
    </linearGradient>
    <linearGradient
       inkscape:collect="always"
       xlink:href="#a-367"
       id="linearGradient1477"
       gradientUnits="userSpaceOnUse"
       x1="11"
       y1="19"
       x2="11"
       y2="6" />
    <linearGradient
       inkscape:collect="always"
       xlink:href="#a-367"
       id="linearGradient1479"
       gradientUnits="userSpaceOnUse"
       x1="10"
       y1="20"
       x2="10"
       y2="7"
       gradientTransform="translate(1,-1)" />
  </defs>
  <sodipodi:namedview
     pagecolor="#ffffff"
     bordercolor="#666666"
     borderopacity="1"
     objecttolerance="10"
     gridtolerance="10"
     guidetolerance="10"
     inkscape:pageopacity="0"
     inkscape:pageshadow="2"
     inkscape:window-width="1366"
     inkscape:window-height="697"
     id="namedview15"
     showgrid="true"
     inkscape:snap-global="true"
     inkscape:zoom="16"
     inkscape:cx="7.937451"
     inkscape:cy="9.87979"
     inkscape:window-x="0"
     inkscape:window-y="0"
     inkscape:window-maximized="1"
     inkscape:current-layer="svg13">
    <inkscape:grid
       type="xygrid"
       id="grid840"
       spacingx="0.5"
       spacingy="0.5"
       empspacing="2" />
  </sodipodi:namedview>
  <linearGradient
     id="a"
     gradientUnits="userSpaceOnUse"
     x1="7"
     x2="11"
     y1="2"
     y2="15"
     gradientTransform="translate(-1.5,0.5)">
    <stop
       offset="0"
       stop-color="#fff"
       id="stop2" />
    <stop
       offset="1"
       stop-color="#fff"
       stop-opacity="0"
       id="stop4" />
  </linearGradient>
  <g
     id="g1485">
    <path
       id="path7"
       d="M 3.8527923,7.661775 A 0.50108156,0.50108156 0 0 0 2.9979111,8.01671 v 8.485281 a 0.50108156,0.50108156 0 0 0 0.4999465,0.499947 h 8.4852814 a 0.50108156,0.50108156 0 0 0 0.354935,-0.854882 L 8.8025398,12.611523 7.3883262,11.197309 Z"
       style="fill:url(#linearGradient1477);fill-opacity:1;stroke:none;stroke-linecap:round;stroke-linejoin:round"
       inkscape:connector-curvature="0" />
    <path
       id="path4"
       d="M 14.5,6 A 6.5,6.5 0 0 0 9.8125,8 L 4.4980469,13.380859 6.265625,15.148438 12.207031,9.207031 12.5,8.994141 a 3.9627378,3.9627378 0 0 1 2.25,-0.707032 3.9627378,3.9627378 0 0 1 3.962891,3.962891 3.9627378,3.9627378 0 0 1 -1.03711,2.666016 4.0002499,4.0002499 0 0 1 -0.390625,0.447265 1.25,1.25 0 0 0 -0.613281,1.074219 1.25,1.25 0 0 0 1.25,1.25 1.25,1.25 0 0 0 0.796875,-0.289062 l 0.01953,0.02539 A 6.5,6.5 0 0 0 21,12.5 6.5,6.5 0 0 0 14.5,6 Z"
       style="fill:url(#linearGradient1479);fill-opacity:1;stroke-width:1.18919706"
       inkscape:connector-curvature="0" />
  </g>
</svg>
